frontend/src/images/background-promo_320.svg

<svg width="249" height="249" viewBox="0 0 249 249" fill="none" xmlns="http://www.w3.org/2000/svg">
<path opacity="0.13" fill-rule="evenodd" clip-rule="evenodd" d="M248.005 124.88C248.005 129.169 247.787 133.407 247.361 137.584V185.874V186.506V187.374V188.006V247.5V249H245.861H186.527H185.898H185.027H184.398H125.064H124.425H123.564H122.925H63.5918H62.9622H62.0918H61.4622H2.12891H0.628906V247.5V188.006V187.374V186.506V185.874V137.435C0.213006 133.306 0 129.118 0 124.88C0 120.642 0.213006 116.453 0.628906 112.325V64.7541V64.122V63.2541V62.622V3.12818V1.62818H2.12891H61.4622H62.0982H62.9622H63.5982H111.398C115.543 1.21019 119.748 0.996094 124.002 0.996094C128.257 0.996094 132.462 1.21019 136.607 1.62818H184.398H185.027H185.898H186.527H245.86H247.36V3.12818V62.622V63.2541H247.361V64.7541V112.176C247.787 116.353 248.005 120.591 248.005 124.88ZM245.861 64.7541V101.822C243.37 88.6049 238.779 76.1292 232.447 64.7541H245.861ZM245.861 112.254C244.104 95.1277 238.812 79.0478 230.726 64.7541H186.527V124.248H245.861V112.254ZM245.86 62.622H231.232C220.451 44.1292 205.015 28.6789 186.527 17.8738V3.12818H245.86V62.622ZM229.492 62.622C219.012 44.9387 204.205 30.1178 186.527 19.6151V62.622H229.492ZM184.398 3.12818V16.6576C172.94 10.2616 160.361 5.62923 147.03 3.12818H184.398ZM184.398 18.379C170.007 10.2161 153.798 4.88053 136.53 3.12818H125.065V62.622H184.398V18.379ZM63.5982 3.12818H100.975C87.6405 5.62986 75.0588 10.2639 63.5982 16.6624V3.12818ZM111.475 3.12818C94.2028 4.88088 77.9915 10.2182 63.5982 18.3838V62.622H122.932V3.12818H111.475ZM61.4622 3.12818V17.8828C42.9815 28.6875 27.5506 44.1344 16.7728 62.622H2.12891V3.12818H61.4622ZM61.4622 19.6243C43.7909 30.1264 28.9892 44.9438 18.5131 62.622H61.4622V19.6243ZM2.12891 64.7541H15.558C9.21276 76.1523 4.6157 88.6554 2.12891 101.902V64.7541ZM2.12891 126.38V137.358C3.90573 154.887 9.38536 171.323 17.7742 185.874H61.4622V126.38H2.12891ZM2.12891 185.874V147.858C4.67899 161.441 9.44813 174.243 16.0459 185.874H2.12891ZM2.12891 188.006H17.2839C28.0359 206.109 43.2717 221.242 61.4622 231.877V247.5H2.12891V188.006ZM63.5918 247.5V233.094C76.5474 240.328 90.9359 245.307 106.225 247.5H63.5918ZM63.5918 231.372C81.1273 241.322 101.362 247.073 122.925 247.259V188.006H63.5918V231.372ZM184.398 247.5H141.78C157.063 245.308 171.446 240.332 184.398 233.102V247.5ZM125.064 247.259C146.628 247.076 166.862 241.327 184.398 231.381V188.006H125.064V247.259ZM186.527 247.5V231.886C204.725 221.25 219.966 206.114 230.721 188.006H245.861V247.5H186.527ZM186.527 230.144C203.915 219.814 218.526 205.306 228.972 188.006H186.527V230.144ZM186.527 185.874H230.23C238.596 171.364 244.068 154.979 245.861 137.506V126.38H186.527V185.874ZM245.861 147.938C243.307 161.492 238.544 174.266 231.959 185.874H245.861V147.938ZM19.0326 188.006C29.4761 205.301 44.0811 219.806 61.4622 230.135V188.006H19.0326ZM17.2785 64.7541C9.16942 79.089 3.87048 95.2204 2.12891 112.402V124.248H61.4622V64.7541H17.2785ZM63.5918 64.7541H122.925V68.375H92.6071V68.3751H76.9102V124.248H63.5918V64.7541ZM76.9102 126.38H63.5918V185.874H122.925V126.38H96.9639V181.81H76.9102V126.38ZM96.9639 124.248H122.925V88.445H96.9639V124.248ZM125.064 68.375H153.641H158H173.694V124.248H184.398V64.7541H125.064V68.375ZM173.694 126.38H184.398V185.874H125.064V126.38H153.641V181.81H173.694V126.38ZM153.641 124.248V88.445H125.064V124.248H153.641Z" fill="white"/>
</svg>

<svg width="249" height="249" fill="none" xmlns="http://www.w3.org/2000/svg"><path opacity=".13" fill-rule="evenodd" clip-rule="evenodd" d="M248.005 124.88c0 4.289-.218 8.527-.644 12.704V249H.629V137.435A125.243 125.243 0 0 1 0 124.88c0-4.238.213-8.427.629-12.555V1.628h110.769c4.145-.418 8.35-.632 12.604-.632 4.255 0 8.46.214 12.605.632H247.36v61.626h.001v48.922c.426 4.177.644 8.415.644 12.704zm-2.144-60.126v37.068a122.995 122.995 0 0 0-13.414-37.068h13.414zm0 47.5a121.51 121.51 0 0 0-15.135-47.5h-44.199v59.494h59.334v-11.994zm-.001-49.632h-14.628a124.555 124.555 0 0 0-44.705-44.748V3.128h59.333v59.494zm-16.368 0a123.067 123.067 0 0 0-42.965-43.007v43.007h42.965zM184.398 3.128v13.53a123.235 123.235 0 0 0-37.368-13.53h37.368zm0 15.251a121.8 121.8 0 0 0-47.868-15.25h-11.465v59.493h59.333V18.379zm-120.8-15.25h37.377a123.237 123.237 0 0 0-37.377 13.533V3.128zm47.877 0a121.799 121.799 0 0 0-47.877 15.255v44.238h59.334V3.128h-11.457zm-50.013 0v14.754a124.557 124.557 0 0 0-44.69 44.739H2.13V3.128h59.333zm0 16.495a123.056 123.056 0 0 0-42.949 42.998h42.95V19.624zM2.13 64.754h13.429a122.965 122.965 0 0 0-13.43 37.148V64.754zm0 61.626v10.978a121.524 121.524 0 0 0 15.645 48.516h43.688V126.38H2.13zm0 59.494v-38.016a122.99 122.99 0 0 0 13.917 38.016H2.129zm0 2.132h15.155a124.563 124.563 0 0 0 44.178 43.871V247.5H2.13v-59.494zM63.592 247.5v-14.406a123.253 123.253 0 0 0 42.633 14.406H63.592zm0-16.128c17.535 9.95 37.77 15.701 59.333 15.887v-59.253H63.592v43.366zM184.398 247.5H141.78a123.242 123.242 0 0 0 42.618-14.398V247.5zm-59.334-.241c21.564-.183 41.798-5.932 59.334-15.878v-43.375h-59.334v59.253zm61.463.241v-15.614a124.564 124.564 0 0 0 44.194-43.88h15.14V247.5h-59.334zm0-17.356a123.057 123.057 0 0 0 42.445-42.138h-42.445v42.138zm0-44.27h43.703a121.52 121.52 0 0 0 15.631-48.368V126.38h-59.334v59.494zm59.334-37.936a122.983 122.983 0 0 1-13.902 37.936h13.902v-37.936zM19.033 188.006a123.059 123.059 0 0 0 42.43 42.129v-42.129h-42.43zM17.278 64.754a121.513 121.513 0 0 0-15.15 47.648v11.846h59.334V64.754H17.278zm46.314 0h59.333v3.621H76.91v55.873H63.592V64.754zM76.91 126.38H63.592v59.494h59.333V126.38H96.964v55.43H76.91v-55.43zm20.054-2.132h25.961V88.445H96.964v35.803zm28.1-55.873h48.63v55.873h10.704V64.754h-59.334v3.621zm48.63 58.005h10.704v59.494h-59.334V126.38h28.577v55.43h20.053v-55.43zm-20.053-2.132V88.445h-28.577v35.803h28.577z" fill="#fff"/></svg>
